games/files/google-snake/assets/keys.svg

<svg xmlns="http://www.w3.org/2000/svg" id="prefix___1" data-name="1" viewBox="0 0 100 100"><defs><style>.prefix__cls-1{fill:#fff}</style></defs><title>NEWSVG1</title><path d="M98.59 60a6.7 6.7 0 0 0-6.7-6.7 6.68 6.68 0 0 0-5.05 2.31h-.07v-1a6.7 6.7 0 0 0-6.7-6.7 6.69 6.69 0 0 0-6.44 4.89V33a6.7 6.7 0 1 0-13.39 0v38a28.4 28.4 0 0 0-8.41-3 6.56 6.56 0 0 0-2.32 13c4.39.79 7.69 3.47 11.86 6.86 1.68 1.37 3.42 2.77 5.35 4.16a18.24 18.24 0 0 0 11.83 4.28h1.7A18.32 18.32 0 0 0 98.56 78ZM34.93 8.11H22.25A1.88 1.88 0 0 0 20.38 10v12.67a1.88 1.88 0 0 0 1.88 1.88h12.67a1.88 1.88 0 0 0 1.88-1.88V10a1.88 1.88 0 0 0-1.88-1.89M23.2 20.26l5.77-9 5.77 9ZM34.93 26.66H22.25a1.88 1.88 0 0 0-1.88 1.88v12.68a1.88 1.88 0 0 0 1.88 1.88h12.68a1.88 1.88 0 0 0 1.88-1.88V28.54a1.88 1.88 0 0 0-1.88-1.88M28.75 40l-5.77-9h11.54ZM15.94 26.66H3.26a1.88 1.88 0 0 0-1.88 1.88v12.68a1.88 1.88 0 0 0 1.88 1.88h12.68a1.88 1.88 0 0 0 1.88-1.88V28.54a1.88 1.88 0 0 0-1.88-1.88M4.82 34.82l9-5.77v11.54Z" class="prefix__cls-1"/><path d="M56.07 28.54a1.88 1.88 0 0 0-1.88-1.88H41.51a1.88 1.88 0 0 0-1.88 1.88v12.68a1.88 1.88 0 0 0 1.88 1.88h12.68a1.88 1.88 0 0 0 1.88-1.88ZM43.84 40.45V28.92l9 5.77Z" class="prefix__cls-1"/></svg>

<svg xmlns="http://www.w3.org/2000/svg" id="_1" data-name="1" viewBox="0 0 100 100"><defs><style>.cls-1{fill:#fff}</style></defs><title>NEWSVG1</title><path d="M98.59,60a6.7,6.7,0,0,0-6.7-6.7h0a6.68,6.68,0,0,0-5.05,2.31l-.07,0v-1a6.7,6.7,0,0,0-6.7-6.7h0a6.69,6.69,0,0,0-6.44,4.89V33a6.7,6.7,0,1,0-13.39,0V71A28.35,28.35,0,0,0,51.83,68,6.56,6.56,0,0,0,49.51,81c4.39.79,7.69,3.47,11.86,6.86,1.68,1.37,3.42,2.77,5.35,4.16A18.24,18.24,0,0,0,78.55,96.3h1.7A18.32,18.32,0,0,0,98.56,78Z" class="cls-1"/><path d="M34.93,8.11H22.25A1.88,1.88,0,0,0,20.38,10V22.67a1.88,1.88,0,0,0,1.88,1.88H34.93a1.88,1.88,0,0,0,1.88-1.88V10A1.88,1.88,0,0,0,34.93,8.11ZM23.2,20.26l5.77-9,5.77,9Z" class="cls-1"/><path d="M34.93,26.66H22.25a1.88,1.88,0,0,0-1.88,1.88V41.22a1.88,1.88,0,0,0,1.88,1.88H34.93a1.88,1.88,0,0,0,1.88-1.88V28.54A1.88,1.88,0,0,0,34.93,26.66ZM28.75,40l-5.77-9H34.52Z" class="cls-1"/><path d="M15.94,26.66H3.26a1.88,1.88,0,0,0-1.88,1.88V41.22A1.88,1.88,0,0,0,3.26,43.1H15.94a1.88,1.88,0,0,0,1.88-1.88V28.54A1.88,1.88,0,0,0,15.94,26.66ZM4.82,34.82l9-5.77V40.59Z" class="cls-1"/><path d="M56.07,28.54a1.88,1.88,0,0,0-1.88-1.88H41.51a1.88,1.88,0,0,0-1.88,1.88V41.22a1.88,1.88,0,0,0,1.88,1.88H54.19a1.88,1.88,0,0,0,1.88-1.88ZM43.84,40.45V28.92l9,5.77Z" class="cls-1"/></svg>
